images/Cog.svg

<svg width="12" height="12" xmlns="http://www.w3.org/2000/svg"><path d="M6.80245238 8.29344264l1.26638641-1.06262437.29835375-1.69204822-.84623999-1.46573066L6 3.51945793l-1.52095255.55358146-.84623999 1.46573066.29835375 1.69204822 1.26638641 1.06262437h1.60490476zm.11010923.23917282V12H5.08743839V8.53261546L2.86817335 11.1774325 1.47004786 10.004266l2.25622309-2.68886201-3.43706935.60604806-.31692932-1.79739549 3.45673432-.60951553L.38237588 3.75556797l.91256161-1.58060306 3.00284309 1.73369226L3.10409892.62904377l1.71505482-.6242289L6 3.2491633 7.18084626.00481487l1.71505482.6242289-1.19368166 3.2796134 3.00284308-1.73369226.9125616 1.58060306-3.0466307 1.75897306 3.4567343.60951553-.3169293 1.79739549-3.43706935-.60604806L10.5299521 10.004266l-1.39812545 1.1731665-2.21926504-2.64481704z" fill="#FFF" fill-rule="evenodd"/></svg>

<?xml version="1.0" encoding="UTF-8"?>
<svg width="12px" height="12px" viewBox="0 0 12 12" version="1.1" xmlns="http://www.w3.org/2000/svg" xmlns:xlink="http://www.w3.org/1999/xlink">
    <!-- Generator: Sketch 48.2 (47327) - http://www.bohemiancoding.com/sketch -->
    <title>Cog</title>
    <desc>Created with Sketch.</desc>
    <defs></defs>
    <g id="Symbols" stroke="none" stroke-width="1" fill="none" fill-rule="evenodd">
        <g id="Cog" fill="#FFFFFF">
            <path d="M6.80245238,8.29344264 L8.06883879,7.23081827 L8.36719254,5.53877005 L7.52095255,4.07303939 L6,3.51945793 L4.47904745,4.07303939 L3.63280746,5.53877005 L3.93116121,7.23081827 L5.19754762,8.29344264 L6.80245238,8.29344264 Z M6.91256161,8.53261546 L6.91256161,12 L5.08743839,12 L5.08743839,8.53261546 L2.86817335,11.1774325 L1.47004786,10.004266 L3.72627095,7.31540399 L0.289201597,7.92145205 L-0.0277277226,6.12405656 L3.4290066,5.51454103 L0.382375881,3.75556797 L1.29493749,2.17496491 L4.29778058,3.90865717 L3.10409892,0.629043771 L4.81915374,0.0048148685 L6,3.24916331 L7.18084626,0.0048148685 L8.89590108,0.629043771 L7.70221942,3.90865717 L10.7050625,2.17496491 L11.6176241,3.75556797 L8.5709934,5.51454103 L12.0277277,6.12405656 L11.7107984,7.92145205 L8.27372905,7.31540399 L10.5299521,10.004266 L9.13182665,11.1774325 L6.91256161,8.53261546 Z"></path>
        </g>
    </g>
</svg>
